brandFactory_export/2.Regular/Usuario_Micuenta_persona_2Regular.svg

<?xml version="1.0" encoding="UTF-8"?>
<svg width="24px" height="24px" viewBox="0 0 24 24" version="1.1" xmlns="http://www.w3.org/2000/svg" xmlns:xlink="http://www.w3.org/1999/xlink">
    <title>2.Regular/Usuario_Micuenta_persona_2Regular</title>
    <g id="Symbols" stroke="none" stroke-width="1" fill="none" fill-rule="evenodd">
        <g id="2.Regular/Usuario_Micuenta_persona_2Regular" fill="#5CB615" fill-rule="nonzero">
            <path d="M11.5344538,11.8319328 C9.66554622,11.8319328 8.21008403,11.3411765 7.20168067,10.3697479 C6.15630252,9.36134454 5.62521008,7.86554622 5.62521008,5.92268908 C5.62521008,3.97983193 6.15630252,2.48067227 7.20168067,1.46890756 C8.21008403,0.494117647 9.66554622,0 11.5344538,0 C13.4033613,0 14.8621849,0.494117647 15.8739496,1.46890756 C16.9260504,2.48067227 17.4571429,3.97983193 17.4571429,5.92268908 C17.4571429,7.86554622 16.9226891,9.36134454 15.8705882,10.3697479 C14.8621849,11.3411765 13.4033613,11.8319328 11.5344538,11.8319328 Z M11.5344538,1.34453782 C10.0285714,1.34453782 8.88571429,1.71092437 8.13613445,2.43697479 C7.36302521,3.18655462 6.9697479,4.35966387 6.9697479,5.92605042 C6.9697479,7.49243697 7.36302521,8.65882353 8.13613445,9.40504202 C8.88235294,10.1243697 10.0252101,10.4907563 11.5344538,10.4907563 C13.0436975,10.4907563 14.189916,10.1243697 14.9428571,9.40504202 C15.7193277,8.65882353 16.1159664,7.48907563 16.1159664,5.92941176 C16.112605,2.84369748 14.6134454,1.34453782 11.5344538,1.34453782 Z M21.3663866,23.6302521 L1.70252101,23.6302521 C1.33277311,23.6302521 1.0302521,23.3277311 1.0302521,22.9579832 L1.0302521,20.9915966 C1.0302521,19.1092437 1.61512605,17.5058824 2.72436975,16.3495798 C3.93445378,15.0890756 5.72941176,14.4201681 7.9210084,14.4201681 L15.1310924,14.4201681 C17.3226891,14.4201681 19.1243697,15.0857143 20.3344538,16.3462185 C21.4504202,17.5058824 22.0386555,19.1092437 22.0386555,20.9915966 L22.0386555,22.9579832 C22.0386555,23.3277311 21.7361345,23.6302521 21.3663866,23.6302521 Z M2.37478992,22.2857143 L20.6941176,22.2857143 L20.6941176,20.9915966 C20.6941176,19.4655462 20.2336134,18.1815126 19.3663866,17.2773109 C18.3983193,16.2722689 16.9731092,15.7647059 15.1310924,15.7647059 L7.9210084,15.7647059 C6.0789916,15.7647059 4.65714286,16.2722689 3.69579832,17.2773109 C2.83193277,18.1781513 2.37478992,19.4621849 2.37478992,20.9915966 L2.37478992,22.2857143 Z" id="Usuario_Micuenta_persona_2Regular"></path>
        </g>
    </g>
</svg>

<svg width="24" height="24" viewBox="0 0 24 24" xmlns="http://www.w3.org/2000/svg"><path d="M11.534 11.832c-1.868 0-3.324-.49-4.332-1.462C6.156 9.36 5.625 7.866 5.625 5.923s.531-3.442 1.577-4.454C8.21.494 9.666 0 11.534 0c1.87 0 3.328.494 4.34 1.469 1.052 1.012 1.583 2.51 1.583 4.454 0 1.943-.534 3.438-1.586 4.447-1.009.971-2.468 1.462-4.337 1.462zm0-10.487c-1.505 0-2.648.366-3.398 1.092-.773.75-1.166 1.923-1.166 3.49 0 1.565.393 2.732 1.166 3.478.746.72 1.89 1.086 3.398 1.086 1.51 0 2.656-.367 3.409-1.086.776-.746 1.173-1.916 1.173-3.476-.003-3.085-1.503-4.584-4.582-4.584zm9.832 22.285H1.703a.674.674 0 01-.673-.672v-1.966c0-1.883.585-3.486 1.694-4.642 1.21-1.26 3.005-1.93 5.197-1.93h7.21c2.192 0 3.993.666 5.203 1.926 1.116 1.16 1.705 2.763 1.705 4.646v1.966c0 .37-.303.672-.673.672zM2.375 22.286h18.32v-1.294c0-1.526-.461-2.81-1.329-3.715-.968-1.005-2.393-1.512-4.235-1.512h-7.21c-1.842 0-3.264.507-4.225 1.512-.864.901-1.321 2.185-1.321 3.715v1.294z" fill="#5CB615" fill-rule="nonzero"/></svg>
